X: 5002
T: Breton
R: waltz
M: 3/4
K: Eminor
EF GA Be|fg gf eB|^c3e fe|^d3 A AG|
EF GA Be|g3f eB|B-c ec AG|AB FD GF|
EF GA Be|g3f eB|B-c ec AG|AB BA GF|
EF GA Be|g3f eB|c2 ec AG|A3D EG||
A3c eb|a2 ag f/g/a|fg gf ed|AB GE GB|
A^G Ac eb|a2 ag f/g/a|fg gf ed|B3c Bc|
AE Ac eb|a2 ag f/g/a|fg gf ed|AB GE GB|
A3c eb|a2 ag f/g/a|fg gf ga|c'b bc' c'b||
f-g gf eB|g3f eB|Ac ea c'e'|c'3a f/g/a|
f-g gf eB|f-g gf eB|{e}ff ef ga|ba fe ^d/e/f|
gb gf eB|g3f eB|AB BA Bc-|cB BA AB|
g2 gf eB|f-g gf eB|{e}ff ef ga|b6||

